Assets/SettingsPanel/Steam.svg

<?xml version="1.0" encoding="UTF-8"?>
<svg xmlns="http://www.w3.org/2000/svg" xmlns:xlink="http://www.w3.org/1999/xlink" width="31px" height="31px" viewBox="0 0 31 31" version="1.1">
<g id="surface1">
<path style=" stroke:none;fill-rule:nonzero;fill:rgb(0%,0%,0%);fill-opacity:1;" d="M 15.5 4.339844 C 9.339844 4.339844 4.339844 9.339844 4.339844 15.5 C 4.339844 21.660156 9.339844 26.660156 15.5 26.660156 C 21.660156 26.660156 26.660156 21.660156 26.660156 15.5 C 26.660156 9.339844 21.660156 4.339844 15.5 4.339844 Z M 15.5 4.960938 C 21.324219 4.960938 26.039062 9.675781 26.039062 15.5 C 26.039062 21.324219 21.324219 26.039062 15.5 26.039062 C 10.875 26.039062 6.953125 23.066406 5.53125 18.925781 L 8.78125 20.136719 C 9.101562 21.304688 10.136719 22.207031 11.371094 22.308594 C 12.785156 22.425781 14.019531 21.539062 14.425781 20.28125 C 14.460938 20.175781 14.519531 20.085938 14.601562 20.027344 L 18.570312 17.105469 C 18.632812 17.058594 18.710938 17.03125 18.796875 17.019531 C 21.039062 16.761719 22.761719 14.789062 22.621094 12.445312 C 22.496094 10.28125 20.71875 8.503906 18.554688 8.378906 C 16.210938 8.238281 14.238281 9.960938 13.980469 12.203125 C 13.96875 12.289062 13.941406 12.367188 13.894531 12.429688 L 10.972656 16.398438 C 10.914062 16.480469 10.824219 16.539062 10.71875 16.574219 C 10.5 16.644531 10.296875 16.742188 10.101562 16.859375 L 4.996094 14.644531 C 5.433594 9.21875 9.964844 4.960938 15.5 4.960938 Z M 15.371094 5.886719 C 11.230469 5.941406 7.441406 8.691406 6.253906 12.878906 C 6.140625 13.28125 6.054688 13.679688 5.996094 14.082031 C 5.984375 14.136719 6.003906 14.195312 6.046875 14.230469 C 6.09375 14.265625 6.152344 14.273438 6.203125 14.253906 C 6.257812 14.230469 6.292969 14.183594 6.300781 14.128906 C 6.359375 13.738281 6.441406 13.351562 6.550781 12.964844 C 7.953125 8.019531 13.09375 5.152344 18.035156 6.550781 C 19.117188 6.859375 20.101562 7.34375 20.960938 7.96875 C 21.03125 8.019531 21.128906 8.003906 21.179688 7.933594 C 21.230469 7.867188 21.214844 7.769531 21.144531 7.71875 C 20.253906 7.074219 19.238281 6.570312 18.121094 6.253906 C 17.480469 6.074219 16.839844 5.960938 16.203125 5.914062 C 15.925781 5.894531 15.648438 5.882812 15.371094 5.886719 Z M 21.828125 8.324219 C 21.765625 8.328125 21.710938 8.371094 21.691406 8.429688 C 21.667969 8.488281 21.6875 8.554688 21.734375 8.597656 C 21.90625 8.753906 22.074219 8.914062 22.230469 9.082031 C 22.269531 9.125 22.328125 9.144531 22.382812 9.132812 C 22.4375 9.117188 22.484375 9.074219 22.5 9.019531 C 22.515625 8.964844 22.496094 8.90625 22.457031 8.867188 C 22.292969 8.695312 22.121094 8.527344 21.941406 8.367188 C 21.910156 8.339844 21.871094 8.324219 21.828125 8.324219 Z M 18.128906 8.683594 C 18.265625 8.679688 18.398438 8.679688 18.535156 8.6875 C 20.542969 8.804688 22.195312 10.457031 22.3125 12.464844 C 22.441406 14.644531 20.84375 16.472656 18.761719 16.710938 C 18.628906 16.726562 18.5 16.773438 18.386719 16.855469 L 14.417969 19.777344 C 14.277344 19.882812 14.183594 20.027344 14.132812 20.183594 C 13.769531 21.308594 12.667969 22.105469 11.398438 22 C 10.375 21.914062 9.5 21.207031 9.152344 20.273438 L 11.054688 20.980469 C 11.054688 20.980469 11.054688 20.980469 11.054688 20.984375 C 11.898438 21.292969 12.851562 20.898438 13.210938 20.066406 C 13.585938 19.203125 13.1875 18.199219 12.328125 17.824219 L 12.203125 17.769531 L 10.457031 17.015625 C 10.574219 16.957031 10.691406 16.90625 10.816406 16.867188 C 10.96875 16.816406 11.117188 16.726562 11.222656 16.582031 L 14.144531 12.613281 C 14.226562 12.5 14.273438 12.371094 14.289062 12.238281 C 14.515625 10.285156 16.132812 8.761719 18.128906 8.683594 Z M 22.828125 9.371094 C 22.769531 9.371094 22.714844 9.40625 22.6875 9.460938 C 22.664062 9.515625 22.671875 9.578125 22.710938 9.625 C 22.789062 9.722656 22.867188 9.824219 22.941406 9.921875 C 22.996094 9.992188 23.089844 10.007812 23.160156 9.957031 C 23.230469 9.902344 23.242188 9.804688 23.191406 9.738281 C 23.113281 9.632812 23.03125 9.53125 22.949219 9.429688 C 22.921875 9.394531 22.878906 9.371094 22.828125 9.371094 Z M 18.289062 9.609375 C 16.578125 9.609375 15.191406 11 15.191406 12.710938 C 15.191406 14.421875 16.578125 15.808594 18.289062 15.808594 C 20 15.808594 21.390625 14.421875 21.390625 12.710938 C 21.390625 11 20 9.609375 18.289062 9.609375 Z M 18.289062 9.921875 C 19.832031 9.921875 21.078125 11.167969 21.078125 12.710938 C 21.078125 14.253906 19.832031 15.5 18.289062 15.5 C 16.746094 15.5 15.5 14.253906 15.5 12.710938 C 15.5 11.167969 16.746094 9.921875 18.289062 9.921875 Z M 23.511719 10.339844 C 23.457031 10.34375 23.40625 10.375 23.382812 10.425781 C 23.359375 10.476562 23.363281 10.535156 23.390625 10.578125 C 24.730469 12.726562 25.191406 15.410156 24.449219 18.035156 C 23.046875 22.980469 17.90625 25.847656 12.964844 24.449219 C 10.695312 23.804688 8.863281 22.371094 7.679688 20.53125 C 7.648438 20.484375 7.597656 20.453125 7.539062 20.457031 C 7.484375 20.457031 7.433594 20.492188 7.40625 20.542969 C 7.382812 20.589844 7.386719 20.652344 7.417969 20.699219 C 8.640625 22.601562 10.535156 24.082031 12.878906 24.746094 C 17.984375 26.191406 23.300781 23.226562 24.746094 18.121094 C 25.515625 15.40625 25.039062 12.632812 23.65625 10.414062 C 23.628906 10.371094 23.578125 10.339844 23.527344 10.339844 C 23.519531 10.339844 23.515625 10.339844 23.511719 10.339844 Z M 18.289062 10.539062 C 17.09375 10.539062 16.121094 11.511719 16.121094 12.710938 C 16.121094 13.90625 17.09375 14.878906 18.289062 14.878906 C 19.488281 14.878906 20.460938 13.90625 20.460938 12.710938 C 20.460938 11.511719 19.488281 10.539062 18.289062 10.539062 Z M 18.289062 10.851562 C 19.320312 10.851562 20.148438 11.679688 20.148438 12.710938 C 20.148438 13.738281 19.320312 14.570312 18.289062 14.570312 C 17.261719 14.570312 16.429688 13.738281 16.429688 12.710938 C 16.429688 11.679688 17.261719 10.851562 18.289062 10.851562 Z M 4.972656 14.972656 L 10.011719 17.160156 C 10.03125 17.171875 10.054688 17.183594 10.078125 17.1875 L 12.078125 18.054688 L 12.203125 18.109375 C 12.910156 18.417969 13.234375 19.234375 12.925781 19.941406 C 12.632812 20.625 11.851562 20.945312 11.164062 20.691406 L 5.410156 18.546875 C 5.117188 17.582031 4.960938 16.558594 4.960938 15.5 C 4.960938 15.324219 4.964844 15.144531 4.972656 14.972656 Z M 4.972656 14.972656 "/>
</g>
</svg>

<svg xmlns="http://www.w3.org/2000/svg" width="31" height="31" viewBox="0 0 31 31"><path d="M15.5 4.34c-6.16 0-11.16 5-11.16 11.16s5 11.16 11.16 11.16 11.16-5 11.16-11.16-5-11.16-11.16-11.16m0 .62c5.824 0 10.54 4.716 10.54 10.54S21.323 26.04 15.5 26.04a10.54 10.54 0 0 1-9.969-7.114l3.25 1.21c.32 1.169 1.356 2.071 2.59 2.173a2.95 2.95 0 0 0 3.055-2.028.5.5 0 0 1 .176-.254l3.968-2.922a.5.5 0 0 1 .227-.085 4.336 4.336 0 0 0 3.824-4.575c-.125-2.164-1.902-3.941-4.066-4.066a4.336 4.336 0 0 0-4.575 3.824.5.5 0 0 1-.085.227l-2.922 3.968a.5.5 0 0 1-.254.176 3 3 0 0 0-.617.285l-5.106-2.214C5.434 9.219 9.965 4.96 15.5 4.96m-.129.927c-4.14.054-7.93 2.804-9.117 6.992-.113.402-.2.8-.258 1.203a.15.15 0 0 0 .05.148.16.16 0 0 0 .157.024.16.16 0 0 0 .098-.125q.086-.584.25-1.164a9.302 9.302 0 0 1 14.41-4.996c.07.05.168.035.219-.035a.15.15 0 0 0-.035-.215 9.6 9.6 0 0 0-4.942-1.805 10 10 0 0 0-.832-.027m6.457 2.437a.16.16 0 0 0-.137.106.15.15 0 0 0 .043.168q.26.233.496.484a.16.16 0 0 0 .153.05.17.17 0 0 0 .117-.112.16.16 0 0 0-.043-.153 9 9 0 0 0-.516-.5.17.17 0 0 0-.113-.043m-3.7.36a5 5 0 0 1 .407.004c2.008.117 3.66 1.769 3.778 3.777a4.023 4.023 0 0 1-3.551 4.246.8.8 0 0 0-.375.144l-3.969 2.922a.8.8 0 0 0-.285.407A2.64 2.64 0 0 1 11.398 22c-1.023-.086-1.898-.793-2.246-1.727l1.903.707v.004a1.71 1.71 0 0 0 2.156-.918 1.707 1.707 0 0 0-.883-2.242l-.125-.054-1.746-.754a2.4 2.4 0 0 1 .36-.149c.152-.05.3-.14.406-.285l2.922-3.969a.8.8 0 0 0 .144-.375 4.024 4.024 0 0 1 3.84-3.554m4.7.687a.16.16 0 0 0-.14.09.16.16 0 0 0 .023.164c.078.098.156.2.23.297.055.07.149.086.22.035a.157.157 0 0 0 .03-.219q-.118-.157-.242-.308a.15.15 0 0 0-.12-.059m-4.539.238a3.1 3.1 0 0 0 0 6.2 3.1 3.1 0 0 0 3.102-3.098 3.11 3.11 0 0 0-3.104-3.102m0 .313a2.786 2.786 0 0 1 2.79 2.789 2.786 2.786 0 0 1-2.79 2.789 2.786 2.786 0 0 1-2.789-2.79 2.786 2.786 0 0 1 2.79-2.788m5.223.418a.15.15 0 0 0-.13.086.16.16 0 0 0 .009.152A9.302 9.302 0 0 1 12.965 24.45a9.28 9.28 0 0 1-5.285-3.918.157.157 0 0 0-.274.012.16.16 0 0 0 .012.156 9.57 9.57 0 0 0 5.46 4.047c5.106 1.445 10.423-1.52 11.868-6.625a9.6 9.6 0 0 0-1.09-7.707.16.16 0 0 0-.129-.074zm-5.223.2a2.17 2.17 0 1 0 2.172 2.172c0-1.2-.973-2.173-2.172-2.173m0 .312c1.031 0 1.86.828 1.86 1.859a1.859 1.859 0 1 1-1.86-1.86M4.974 14.97l5.039 2.188a.2.2 0 0 0 .066.027l2 .868.125.054a1.392 1.392 0 0 1-1.04 2.582l-5.753-2.144a10.5 10.5 0 0 1-.437-3.574m0 0"/></svg>
